!!!!SEGMENT: pl-gd--ee-1638--007-013_marenzio-luca--il-terzo-libro-de-madrigalia-a-sei-voci-tigre-mia.krn
!!!cenid: 15xx:854
!!!COM: Marenzio, Luca
!!!COM-rismid: pe30003955
!!!CDT: ~1553-1599/08/22
!!!CNT: Italian
!!!GTL: Il Terzo Libro de madrigalia a sei voci
!!!OTL: Tigre mia
!!!OMV: 013
!!!PDT: 1585
!!!AGN:
!!!SMS-siglum: PL-GD
!!!SMS-shelfmark: Ee 1638
!!!SMS-variant:
!!!SMS-altvar:
!!!SMS-shelfwork: 007-013 G
!!!NIFC-rismid: 990039250
!!!URL-scan: https://repozytorium.nifc.pl/islandora/object/pl-gd%3A57883/datastream/PDF/view
!!!ONB-nifc: UWAGA: zbiór na stronach: Canto: s. 694-704, Alto: s. 542-552, Tenore: s. 390-400, Basso: s. 237-248, Quinto: s. 85-96, Sesto: s. 3-14. Uwaga: utwory podzielone wg tytułów w spisach treści dostępnych na końcu każdej księgi głosowej.
!!!AIN: 1 alto 1 bass 1 quinto 1 sesto 1 soprn 1 tenor
!!!key:
**kern	**text	**kern	**text	**kern	**text	**kern	**text	**kern	**text	**kern	**text
*part6	*part6	*part5	*part5	*part4	*part4	*part3	*part3	*part2	*part2	*part1	*part1
*staff6	*staff6	*staff5	*staff5	*staff4	*staff4	*staff3	*staff3	*staff2	*staff2	*staff1	*staff1
*I"BASSO	*	*I"SESTO	*	*I"QVINTO	*	*I"TENORE	*	*I"ALTO	*	*I"CANTO	*
*I'B.	*	*I'S.	*	*I'Q.	*	*I'T.	*	*I'A.	*	*I'C.	*
*Ibass	*	*Isesto	*	*Iquinto	*	*Itenor	*	*Ialto	*	*Isoprn	*
*ICvox	*	*ICvox	*	*ICvox	*	*ICvox	*	*ICvox	*	*ICvox	*
*IG	*	*	*	*	*	*	*	*	*	*	*
*clefF4	*	*clefC4	*	*clefC4	*	*clefC4	*	*clefC3	*	*clefC1	*
*k[b-]	*	*k[b-]	*	*k[b-]	*	*k[b-]	*	*k[b-]	*	*k[b-]	*
*F:	*	*F:	*	*F:	*	*F:	*	*F:	*	*F:	*
*M4/4	*	*M4/4	*	*M4/4	*	*M4/4	*	*M4/4	*	*M4/4	*
*met(C)	*	*met(C)	*	*met(C)	*	*met(C)	*	*met(C)	*	*met(C)	*
=1-	=1-	=1-	=1-	=1-	=1-	=1-	=1-	=1-	=1-	=1-	=1-
1r	.	1r	.	1r	.	1r	.	2.d\	TI-	2.f/	TI-
.	.	.	.	.	.	.	.	4e\	-gre	4g/	-gre
=2-	=2-	=2-	=2-	=2-	=2-	=2-	=2-	=2-	=2-	=2-	=2-
2.D/	TI-	2r	.	2r	.	2.F/	TI-	1f	mia	1a	mia
.	.	2.F/	TI-	2.A/	TI-	.	.	.	.	.	.
4E\	-gre	.	.	.	.	4G/	-gre	.	.	.	.
=3-	=3-	=3-	=3-	=3-	=3-	=3-	=3-	=3-	=3-	=3-	=3-
*	*	*	*	*	*	*	*	*	*ij	*	*ij
1F	mia	.	.	.	.	1A	mia	2.f\	TI-	2.a\	Ti-
.	.	4G/	-gre	4B-\	-gre	.	.	.	.	.	.
.	.	2A/	mia	1c\	mia	.	.	.	.	.	.
.	.	.	.	.	.	.	.	4g\	-gre	4b-\	-gre
=4-	=4-	=4-	=4-	=4-	=4-	=4-	=4-	=4-	=4-	=4-	=4-
*	*ij	*	*	*	*	*	*ij	*	*	*	*
2.F\	TI-	2r	.	.	.	2.A/	TI-	1a	mia	1cc	mia
*	*	*	*ij	*	*ij	*	*	*	*Xij	*	*Xij
.	.	2.A/	TI-	2.c\	TI-	.	.	.	.	.	.
4G\	-gre	.	.	.	.	4B-\	-gre	.	.	.	.
=5-	=5-	=5-	=5-	=5-	=5-	=5-	=5-	=5-	=5-	=5-	=5-
1A	mia	.	.	.	.	2c\	mia	2.e\	ſe	2r	.
*	*Xij	*	*	*	*	*	*Xij	*	*	*	*
.	.	4B-\	-gre	4d\	-gre	.	.	.	.	.	.
.	.	2c\	mia	2e\	mia	2.A/	ſe	.	.	2.a\	ſe
*	*	*	*Xij	*	*Xij	*	*	*	*	*	*
.	.	.	.	.	.	.	.	4c/	ti	.	.
=6-	=6-	=6-	=6-	=6-	=6-	=6-	=6-	=6-	=6-	=6-	=6-
1r	.	1r	.	2r	.	.	.	2f\	pe-	.	.
.	.	.	.	.	.	4d\	ti	.	.	4f/	ti
.	.	.	.	4r	.	2c\	pe-	2e\	-ſe	2g/	pe-
.	.	.	.	2c\	xe	.	.	.	.	.	.
=7-	=7-	=7-	=7-	=7-	=7-	=7-	=7-	=7-	=7-	=7-	=7-
2r	.	2.A/	xe	.	.	1F	-ſa	2r	.	1a	-ſa
.	.	.	.	4A/	ti	.	.	.	.	.	.
2.D/	Ti-	.	.	1d\	pe-	.	.	2.f\	Ti-	.	.
.	.	4F/	ti	.	.	.	.	.	.	.	.
=8-	=8-	=8-	=8-	=8-	=8-	=8-	=8-	=8-	=8-	=8-	=8-
.	.	2B-\	pe-	.	.	1r	.	.	.	2.f/	Ti-
4E\	-gre	.	.	.	.	.	.	4g\	-gre	.	.
2F\	mia	2A/	-ſa	2c\	-ſe	.	.	2a\	mia	.	.
.	.	.	.	.	.	.	.	.	.	4g/	-gre
=9-	=9-	=9-	=9-	=9-	=9-	=9-	=9-	=9-	=9-	=9-	=9-
!	!	!	!	!	!	!	!	!	!	!LO:SIC:v:t=custos a	!
2.F\	ſe	1r	.	1r	.	2c\	ſe	2.f\	ſe	2a\	mia
!	!	!	!	!	!	!	!	!	!	!LO:LB:g=original	!
.	.	.	.	.	.	4c\	ti	.	.	4a\	ſe
!	!	!	!	!	!	!	!	!LO:SIC:v:t=custos e	!	!	!
4D/	ti	.	.	.	.	2B-\	pe-	4f\	ti	4b-\	ti
!	!	!	!	!	!	!	!	!LO:LB:g=original	!	!	!
=10-	=10-	=10-	=10-	=10-	=10-	=10-	=10-	=10-	=10-	=10-	=10-
2C/	pe-	2r	.	2r	.	.	.	2e-X\	p-	2cc\	pe-
.	.	.	.	.	.	4A/	.	.	.	.	.
!LO:SIC:v:t=custos B	!	!	!	!	!	!LO:SIC:v:t=custos d	!	!	!	!	!
2BB-/	-ſe	4r	.	4r	.	2B-\	-ſa	4.d\	-xa	2f/	-ſa
!LO:LB:g=original	!	!	!	!	!	!LO:LB:g=original	!	!	!	!	!
.	.	4.B-\	Et	4.d\	Et	.	.	.	.	.	.
.	.	.	.	.	.	.	.	8e-\	.	.	.
=11-	=11-	=11-	=11-	=11-	=11-	=11-	=11-	=11-	=11-	=11-	=11-
4.B-\	Et	.	.	.	.	1r	.	2f\	.	4.dd\	Et
.	.	8c\	ti	8c\	ti	.	.	.	.	.	.
!	!	!LO:SIC:v:t=custos f	!	!LO:SIC:v:t=custos c	!	!	!	!	!	!	!
.	.	2d\	re-	2B-\	re-	.	.	.	.	.	.
!	!	!LO:LB:g=original	!	!LO:LB:g=original	!	!	!	!	!	!	!
8A\	ti	.	.	.	.	.	.	.	.	8cc\	ti
4G\	re-	.	.	.	.	.	.	2r	.	4b-\	rech'
2F\	-ch' ad-	2f\	-ch' a-	2c\	-ch' ad	.	.	.	.	2a\	ad
=12-	=12-	=12-	=12-	=12-	=12-	=12-	=12-	=12-	=12-	=12-	=12-
.	.	.	.	.	.	1r	.	1r	.	.	.
4C/	-o-	4e\	-do-	4c\	o-	.	.	.	.	4g\	o-
2D/	-ffe-	2d\	-ffe-	2A/	-ffe-	.	.	.	.	2f#X/	-ffe-
=13-	=13-	=13-	=13-	=13-	=13-	=13-	=13-	=13-	=13-	=13-	=13-
2D/	-ſa	2d\	-ſa	2A/	-ſa	4r	.	2r	.	2fny/	-ſa
.	.	.	.	.	.	4.d\	Che	.	.	.	.
!	!	!	!	!LO:N:acc=#	!	!	!	!	!	!	!
4.G\	Che	2r	.	4.Bn\	Che	.	.	4.d\	Che	4.g/	Che
.	.	.	.	.	.	8d\	di	.	.	.	.
.	.	.	.	.	.	4G/	te	.	.	.	.
8G\	di	.	.	8B\	di	.	.	8d\	di	8g/	di
=14-	=14-	=14-	=14-	=14-	=14-	=14-	=14-	=14-	=14-	=14-	=14-
4C/	te	1r	.	1c	te	4r	.	4eny\	te	4g/	te
2F\	la	.	.	.	.	4c\	la	2f\	la	2a\	la
.	.	.	.	.	.	4A/	mia	.	.	.	.
4A\	mia	.	.	.	.	2c\	lin-	4c/	mia	4e/	mia
=15-	=15-	=15-	=15-	=15-	=15-	=15-	=15-	=15-	=15-	=15-	=15-
2G\	lin-	1r	.	1r	.	.	.	2d\	lin-	2g/	lin-
!	!	!	!	!	!	!LO:N:acc=#	!	!	!	!	!
.	.	.	.	.	.	4Bn\	-gua	.	.	.	.
4E\	-gua	.	.	.	.	2c\	ſi	4e\	-gua	4g\	-gua
2F\	ſi	.	.	.	.	.	.	2A/	ſi	2a\	ſi
=16-	=16-	=16-	=16-	=16-	=16-	=16-	=16-	=16-	=16-	=16-	=16-
.	.	1r	.	1r	.	4c\	la-	.	.	.	.
!	!	!	!	!	!	!	!	!	!	!LO:SIC:v:t=custos dd	!
4D/	la-	.	.	.	.	4.f\	-men-	2a\	la-	4dd\	la-
!	!	!	!	!	!	!	!	!	!	!LO:LB:g=original	!
2B-\	-men-	.	.	.	.	.	.	.	.	1dd\	-men-
.	.	.	.	.	.	8e\	.	.	.	.	.
.	.	.	.	.	.	8d\	.	4g\	-men-	.	.
.	.	.	.	.	.	8e\	.	.	.	.	.
=17-	=17-	=17-	=17-	=17-	=17-	=17-	=17-	=17-	=17-	=17-	=17-
!LO:SIC:v:t=custos D	!	!	!	!	!	!	!	!	!	!	!
1A	-ti	1r	.	1r	.	2f\	.	1a	-ti	.	.
!LO:LB:g=original	!	!	!	!	!	!	!	!	!	!	!
.	.	.	.	.	.	2e\	-ti	.	.	2cc#X\	-ti
=18-	=18-	=18-	=18-	=18-	=18-	=18-	=18-	=18-	=18-	=18-	=18-
4D/	O	4d\	O	1r	.	1r	.	1r	.	1r	.
4G\	la	4B-\	la	.	.	.	.	.	.	.	.
2F#X\	mor-	2A/	mor-	.	.	.	.	.	.	.	.
=19-	=19-	=19-	=19-	=19-	=19-	=19-	=19-	=19-	=19-	=19-	=19-
2G\	-di	2G/	-di	1r	.	1r	.	4d\	O	4dd\	O
.	.	.	.	.	.	.	.	4g\	la	4b-\	la
2r	.	2r	.	.	.	.	.	2f#X\	mor-	2a\	mor-
=20-	=20-	=20-	=20-	=20-	=20-	=20-	=20-	=20-	=20-	=20-	=20-
!	!	!	!	!	!	!	!	!LO:SIC:v:t=custos d	!	!	!
4.G\	o	2r	.	2r	.	4.B-y\	o	2g\	-di	2g/	-di
!	!	!	!	!	!	!	!	!LO:LB:g=original	!	!	!
8A\	la	.	.	.	.	8c\	la	.	.	.	.
4B-\	ſuell'	4.B-\	o	4.d\	o	4d\	ſueall'	2r	.	2r	.
!	!	!	!	!	!	!LO:SIC:v:t=custos B	!	!	!	!	!
4BB-/	un-	.	.	.	.	4f\	un-	.	.	.	.
!	!	!	!	!	!	!LO:LB:g=original	!	!	!	!	!
.	.	8c\	la	8e\	la	.	.	.	.	.	.
=21-	=21-	=21-	=21-	=21-	=21-	=21-	=21-	=21-	=21-	=21-	=21-
2BB-/	-di	4d\	ſuell'	4f\	ſuell'	2B-\	-di	2r	.	2r	.
.	.	4f\	un-	4d\	un-	.	.	.	.	.	.
2r	.	2B-\	-di	2d\	-di	2r	.	4d\	O	4dd\	O
.	.	.	.	.	.	.	.	4g\	la	4b-\	la
=22-	=22-	=22-	=22-	=22-	=22-	=22-	=22-	=22-	=22-	=22-	=22-
2r	.	2r	.	2r	.	4r	.	2f#X\	mor-	2a\	mor-
.	.	.	.	.	.	4.d\	o	.	.	.	.
4.G\	O	4r	.	4.B-y\	O	.	.	2g\	-di	4.dd\	-di o
.	.	.	.	.	.	8c\	la	.	.	.	.
.	.	4.G/	O	.	.	2B-\	sue-	.	.	.	.
8A\	la	.	.	8c\	la	.	.	.	.	8ccny\	la
=23-	=23-	=23-	=23-	=23-	=23-	=23-	=23-	=23-	=23-	=23-	=23-
4B-\	ſuell'	.	.	4d\	ſuell'	.	.	4r	.	4b-\	ſue-
.	.	8A/	la	.	.	.	.	.	.	.	.
4BB-/	un-	4B-\	ſu-	4D/	un	4f\	-lli	4.d\	o	4b-\	-lli
!	!	!LO:SIC:v:t=custos d	!	!	!	!	!	!	!	!	!
1BB-/	-di	4B-\	-lli	1D/	di-	4r	.	.	.	4.f/	o
!	!	!LO:LB:g=original	!	!	!	!	!	!	!	!	!
.	.	.	.	.	.	.	.	8e\	la	.	.
.	.	4.d\	o	.	.	4F/	un-	2fny\	ſuell'	.	.
.	.	.	.	.	.	.	.	.	.	8e/	la
=24-	=24-	=24-	=24-	=24-	=24-	=24-	=24-	=24-	=24-	=24-	=24-
.	.	.	.	.	.	1F/	-di	.	.	4d/	ſuell'
.	.	8e\	la	.	.	.	.	.	.	.	.
.	.	2f\	xuell'	.	.	.	.	4d\	un-	4B-/	un
!	!	!	!	!LO:SIC:v:t=custos A	!	!	!	!	!	!LO:SIC:v:t=custos cc	!
2Fny\	co'	.	.	2A/	-co'	.	.	2f\	-di	2c/	di
!	!	!	!	!LO:LB:g=original	!	!	!	!	!	!LO:LB:g=original	!
.	.	4F/	un-	.	.	.	.	.	.	.	.
=25-	=25-	=25-	=25-	=25-	=25-	=25-	=25-	=25-	=25-	=25-	=25-
4.F\	den-	1c	-di	4.A/	de-	4r	.	2r	.	2r	.
.	.	.	.	.	.	4.c\	o	.	.	.	.
16E\	.	.	.	16G/	.	.	.	.	.	.	.
!LO:SIC:v:t=custos E	!	!	!	!	!	!	!	!	!	!	!
16D\	.	.	.	16F/	.	.	.	.	.	.	.
!LO:LB:g=original	!	!	!	!	!	!	!	!	!	!	!
4.E\	.	.	.	4.G/	.	.	.	4r	.	4r	.
.	.	.	.	.	.	8d\	la	.	.	.	.
.	.	.	.	.	.	4e#X\	ſue-	4c/	co'	4cc\	co'
16D/	.	.	.	16F/	.	.	.	.	.	.	.
16E\	.	.	.	16G/	.	.	.	.	.	.	.
=26-	=26-	=26-	=26-	=26-	=26-	=26-	=26-	=26-	=26-	=26-	=26-
2F\	.	4r	.	2A/	.	2c\	-lli	4.f\	den-	4.a\	den-
.	.	4.c\	o	.	.	.	.	.	.	.	.
.	.	.	.	.	.	.	.	16e\	.	16g/	.
.	.	.	.	.	.	.	.	16d\	.	16f/	.
4C/	-ti	.	.	4c\	-ti	2r	.	4.e\	.	4.g/	.
.	.	8d\	la	.	.	.	.	.	.	.	.
4C/	co'	4e#X\	ſue-	4c\	co'	.	.	.	.	.	.
.	.	.	.	.	.	.	.	16d\	.	16f/	.
.	.	.	.	.	.	.	.	16e\	.	16g/	.
=27-	=27-	=27-	=27-	=27-	=27-	=27-	=27-	=27-	=27-	=27-	=27-
4.F\	den-	2c\	-lli	4.A/	den-	4r	.	2f\	.	2a\	.
.	.	.	.	.	.	4.c\	O	.	.	.	.
16E\	.	.	.	16G/	.	.	.	.	.	.	.
16D/	.	.	.	16F/	.	.	.	.	.	.	.
4.E\	.	2r	.	4.G/	.	.	.	4c/	-ti	4cc\	-ti
.	.	.	.	.	.	8d\	la	.	.	.	.
!	!	!	!	!	!	!	!	!LO:SIC:v:t=custos f	!	!	!
.	.	.	.	.	.	4e#X\	xue-	4c/	co'	4cc\	co'
!	!	!	!	!	!	!	!	!LO:LB:g=original	!	!	!
16D/	.	.	.	16F/	.	.	.	.	.	.	.
16E\	.	.	.	16G/	.	.	.	.	.	.	.
=28-	=28-	=28-	=28-	=28-	=28-	=28-	=28-	=28-	=28-	=28-	=28-
2F\	.	2r	.	2A/	.	2c\	-lli	4.f\	den-	4.a\	den-
.	.	.	.	.	.	.	.	16e\	.	16g/	.
.	.	.	.	.	.	.	.	16d\	.	16f/	.
2C/	-ti	4r	.	2c\	-ti	2r	.	4.e\	.	4.g/	.
.	.	4c\	co'	.	.	.	.	.	.	.	.
.	.	.	.	.	.	.	.	16d\	.	16f/	.
.	.	.	.	.	.	.	.	16e\	.	16g/	.
=29-	=29-	=29-	=29-	=29-	=29-	=29-	=29-	=29-	=29-	=29-	=29-
1r	.	2F/	den-	1r	.	1r	.	2f\	.	2a\	.
.	.	2F/	-ti	.	.	.	.	2c/	-ti	2a\	-ti
=30-	=30-	=30-	=30-	=30-	=30-	=30-	=30-	=30-	=30-	=30-	=30-
!	!	!	!	!	!	!LO:SIC:v:t=custos B	!	!	!	!	!
0F	Ma	1r	.	0c	Ma	0A	Ma	1r	.	1r	.
!	!	!	!	!	!	!LO:LB:g=original	!	!	!	!	!
=31-	=31-	=31-	=31-	=31-	=31-	=31-	=31-	=31-	=31-	=31-	=31-
!	!	!	!	!	!	!	!	!	!	!LO:SIC:v:t=custos b-	!
.	.	1F	Ma	.	.	.	.	1f	Ma	1cc	Ma
!	!	!	!	!	!	!	!	!	!	!LO:LB:g=original	!
=32-	=32-	=32-	=32-	=32-	=32-	=32-	=32-	=32-	=32-	=32-	=32-
2.BB-/	per	2.F/	per	2.d\	per	2.B-\	per	2.f\	per	2.b-\	per
4BB-/	non-	4F/	non	4d\	non	4B-\	non	4f\	non	4b-\	non
=33-	=33-	=33-	=33-	=33-	=33-	=33-	=33-	=33-	=33-	=33-	=33-
2BB-/	-le	2D/	le	2d\	le	2F/	le	2f\	le	2b-\	le
!LO:SIC:v:t=custos C	!	!LO:SIC:v:t=custos G	!	!	!	!	!	!	!	!	!
2FF/	le-	2F/	le-	2c\	le-	2A/	le-	2f\	le-	2a\	le-
!LO:LB:g=original	!	!LO:LB:g=original	!	!	!	!	!	!	!	!	!
=34-	=34-	=34-	=34-	=34-	=34-	=34-	=34-	=34-	=34-	=34-	=34-
!	!	!	!	!LO:SIC:v:t=custos c	!	!	!	!	!	!	!
1C	-uar	1G	-uar	1c	-uar	2E/	-uar	1e	-uar	1g	-uar
!	!	!	!	!LO:LB:g=original	!	!	!	!	!	!	!
.	.	.	.	.	.	1c\	la	.	.	.	.
=35-	=35-	=35-	=35-	=35-	=35-	=35-	=35-	=35-	=35-	=35-	=35-
1AA	la	2r	.	1c	la	.	.	1e	la	1a	la
.	.	2c\	la	.	.	1A\	pen' a	.	.	.	.
=36-	=36-	=36-	=36-	=36-	=36-	=36-	=36-	=36-	=36-	=36-	=36-
1D	pen' a	1f	pen' a	1A	pen' a	.	.	1d	pen' a	2a\	pen' a
.	.	.	.	.	.	1F/	un	.	.	1dd\	un
=37-	=37-	=37-	=37-	=37-	=37-	=37-	=37-	=37-	=37-	=37-	=37-
1BB-	un	1d	un	1B-	un	.	.	1f	un	.	.
.	.	.	.	.	.	1f\	tra-	.	.	1b-\	trat-
=38-	=38-	=38-	=38-	=38-	=38-	=38-	=38-	=38-	=38-	=38-	=38-
0F	tra-	0c	tra-	1c	tra-	.	.	0f	tra-	.	.
.	.	.	.	.	.	2c\	-tto	.	.	4a\	.
.	.	.	.	.	.	.	.	.	.	4g/	.
=39-	=39-	=39-	=39-	=39-	=39-	=39-	=39-	=39-	=39-	=39-	=39-
.	.	.	.	1F	-tto	2r	.	.	.	1a	.
.	.	.	.	.	.	4r	.	.	.	.	.
.	.	.	.	.	.	4F/	Non	.	.	.	.
=40-	=40-	=40-	=40-	=40-	=40-	=40-	=40-	=40-	=40-	=40-	=40-
4BB-/	-tto	1d	-tto	2r	.	4.B-\	la	2f\	-tto	4b-\	-to
4B-\	Non	.	.	.	.	.	.	.	.	4dd\	Non
.	.	.	.	.	.	8A/	tro-	.	.	.	.
4.B-\	la	.	.	4r	.	4G/	-car	2r	.	4.dd\	la
.	.	.	.	4d\	Non	4B-\	Non	.	.	.	.
8A\	tron-	.	.	.	.	.	.	.	.	8cc\	tro-
=41-	=41-	=41-	=41-	=41-	=41-	=41-	=41-	=41-	=41-	=41-	=41-
4G\	-car	1r	.	4.d\	la	4.B-\	la	4r	.	4b-\	-car
4B-\	Nan	.	.	.	.	.	.	4d\	Non	4dd\	Non
.	.	.	.	8c\	tron-	8A/	tron-	.	.	.	.
4.B-\	la	.	.	2B-\	-car	2.G/	-car	4d\	la	4.dd\	la
!	!	!	!	!	!	!	!	!LO:SIC:v:t=custos d	!	!	!
.	.	.	.	.	.	.	.	4d\	tron-	.	.
!	!	!	!	!	!	!	!	!LO:LB:g=original	!	!LO:SIC:v:t=custos b	!
8A\	tron-	.	.	.	.	.	.	.	.	8cc\	tron-
!	!	!	!	!	!	!	!	!	!	!LO:LB:g=original	!
=42-	=42-	=42-	=42-	=42-	=42-	=42-	=42-	=42-	=42-	=42-	=42-
4G\	-car	2r	.	1r	.	.	.	4d\	-car	4b-\	-car
!	!	!	!	!	!	!LO:SIC:v:t=custos B-	!	!	!	!	!
4F\	a-	.	.	.	.	4A\	af-	4d\	a-	4a\	a-
!	!	!	!	!	!	!LO:LB:g=original	!	!	!	!	!
2E-X\	-ffa-	4r	.	.	.	4B-\	-fa-	2e-X\	-ffa-	2g/	-ffa-
.	.	4B-\	Non	.	.	4G/	-tto	.	.	.	.
=43-	=43-	=43-	=43-	=43-	=43-	=43-	=43-	=43-	=43-	=43-	=43-
4BB-/	-tto	4.B-\	la	1r	.	2r	.	1d	-tto	4f/	-tto
!LO:SIC:v:t=custos B	!	!	!	!	!	!	!	!	!	!	!
4B-\	Non	.	.	.	.	.	.	.	.	4d/	Non
!LO:LB:g=original	!	!	!	!	!	!	!	!	!	!	!
.	.	8A\	tron-	.	.	.	.	.	.	.	.
4.B-\	la	4G/	-car	.	.	4r	.	.	.	4.dd\	la
.	.	4B-\	Non	.	.	4d\	Non	.	.	.	.
8A\	tron-	.	.	.	.	.	.	.	.	8cc\	tro-
=44-	=44-	=44-	=44-	=44-	=44-	=44-	=44-	=44-	=44-	=44-	=44-
4G\	-car	4.B-\	la	4r	.	4.d\	la	1r	.	4b-\	-car
4B-\	Nan	.	.	4d\	Non	.	.	.	.	4dd\	Non
.	.	8A/	tron-	.	.	8c\	tro-	.	.	.	.
4.B-\	la	2.G/	-car	4d\	la	2B-\	-car	.	.	4.dd\	la
.	.	.	.	4d\	tron-	.	.	.	.	.	.
8A\	tron-	.	.	.	.	.	.	.	.	8cc\	tron-
=45-	=45-	=45-	=45-	=45-	=45-	=45-	=45-	=45-	=45-	=45-	=45-
4G\	-car	.	.	4d\	-car	1r	.	1r	.	4b-\	-car
4F\	a-	4A/	aff-	4d\	a-	.	.	.	.	4a\	a-
2E-X\	-ffa-	2B-\	-a-	2e-X\	-ffa-	.	.	.	.	2g/	-ffa-
=46-	=46-	=46-	=46-	=46-	=46-	=46-	=46-	=46-	=46-	=46-	=46-
2BB-/	-tto	2B-\	-tto	2d\	-tto	1r	.	2r	.	2f/	-tto
2.F\	An-	2r	.	2.c\	An-	.	.	2.f\	An-	2.a\	An-
=47-	=47-	=47-	=47-	=47-	=47-	=47-	=47-	=47-	=47-	=47-	=47-
.	.	1r	.	.	.	1r	.	.	.	.	.
!	!	!	!	!LO:SIC:v:t=custos d	!	!	!	!	!	!	!
4F\	-zi	.	.	4f\	-zi	.	.	4a\	-zi	4cc\	-ci
!	!	!	!	!LO:LB:g=original	!	!	!	!	!	!LO:SIC:v:t=custos a	!
2G\	per	.	.	2d\	per	.	.	2g\	per	2b-\	per
!	!	!	!	!	!	!	!	!	!	!LO:LB:g=original	!
=48-	=48-	=48-	=48-	=48-	=48-	=48-	=48-	=48-	=48-	=48-	=48-
1A	che	1r	.	1c#X	che	2r	.	1eny	che	1a	che
.	.	.	.	.	.	2.A/	le	.	.	.	.
=49-	=49-	=49-	=49-	=49-	=49-	=49-	=49-	=49-	=49-	=49-	=49-
!	!	!LO:SIC:v:t=custos c	!	!	!	!	!	!	!	!	!
4D/	le	1r	.	4d\	le	.	.	4f\	le	1r	.
!	!	!LO:LB:g=original	!	!	!	!	!	!	!	!	!
2D/	pe-	.	.	2A/	pe-	2F/	pe-	2d\	pe-	.	.
!LO:SIC:v:t=custos F	!	!	!	!	!	!	!	!	!	!	!
4C/	-ne	.	.	2cny\	-ne	4G/	-ne	4e\	-ne	.	.
!LO:LB:g=original	!	!	!	!	!	!	!	!	!	!	!
=50-	=50-	=50-	=50-	=50-	=50-	=50-	=50-	=50-	=50-	=50-	=50-
1.F	ſue	4c\	le	.	.	1.A	ſue	2f\	ſue	4a\	le
.	.	2c\	pe-	4F/	ſue	.	.	.	.	2a\	pe-
.	.	.	.	2r	.	.	.	2f\	ſien	.	.
.	.	4B-\	-ne	.	.	.	.	.	.	4g/	-ne
=51-	=51-	=51-	=51-	=51-	=51-	=51-	=51-	=51-	=51-	=51-	=51-
.	.	2A/	ſue	1r	.	.	.	2c\	mol-	2f/	ſue
2G\	ſien	2G/	ſien	.	.	2B-\	ſien	2g\	-te	2d/	ſien
=52-	=52-	=52-	=52-	=52-	=52-	=52-	=52-	=52-	=52-	=52-	=52-
0E-X	mol-	0G	mol-	1r	.	2c\	mol-	1r	.	0g	mol-
.	.	.	.	.	.	1d\	.	.	.	.	.
=53-	=53-	=53-	=53-	=53-	=53-	=53-	=53-	=53-	=53-	=53-	=53-
.	.	.	.	1r	.	.	.	1r	.	.	.
.	.	.	.	.	.	2c\	.	.	.	.	.
=54-	=54-	=54-	=54-	=54-	=54-	=54-	=54-	=54-	=54-	=54-	=54-
1D	-te	1A	-te	1r	.	1d	-te	1r	.	1f#X	-te
=55-	=55-	=55-	=55-	=55-	=55-	=55-	=55-	=55-	=55-	=55-	=55-
4G\	A	1r	.	4B-\	A	1r	.	4d\	A	4g/	A
4G\	ri-	.	.	4B-\	ri-	.	.	4d\	ri-	4g/	ri-
!	!	!	!	!	!	!	!	!LO:SIC:v:t=custos d	!	!	!
4F#X\	-mor-	.	.	4A/	-mor-	.	.	4d\	-mor-	4a\	-mor-
!	!	!	!	!	!	!	!	!LO:LB:g=original	!	!	!
8F#\	-der-	.	.	8A/	-der-	.	.	8d\	-der-	8a\	-der-
8F#\	-la	.	.	8A/	-la	.	.	8d\	-la	8a\	-la
=56-	=56-	=56-	=56-	=56-	=56-	=56-	=56-	=56-	=56-	=56-	=56-
4.G\	tor-	4B-\	A	4.d\	tor-	4G/	A	2B-/	tor-	4.b-\	tor-
.	.	4d\	ri-	.	.	4G/	ri-	.	.	.	.
8G\	-na	.	.	8G/	-na	.	.	.	.	8b-\	-na
4.D/	mi-	4d\	-mor-	4.A/	mi-	4F#X/	-mor-	2d\	-na	4.a\	mi-
.	.	8d\	-der-	.	.	8F#/	-de-	.	.	.	.
!	!	!	!	!	!	!LO:SIC:v:t=custos G	!	!	!	!	!
8D/	-lle	8d\	-la	8A/	-lle	8F#/	-la	.	.	8dd\	-lle
!	!	!	!	!	!	!LO:LB:g=original	!	!	!	!	!
=57-	=57-	=57-	=57-	=57-	=57-	=57-	=57-	=57-	=57-	=57-	=57-
2GG/	vol-	4.d\	tor-	2B-\	vol-	4.G/	tor-	4g\	A	2dd\	vol-
.	.	.	.	.	.	.	.	4g\	ri-	.	.
.	.	8B-\	-na	.	.	8G/	-na	.	.	.	.
!	!	!	!	!	!	!	!	!	!	!LO:SIC:v:t=custos dd	!
2D/	-te	4A/	mi-	2d\	-te	4.A/	mi-	4f#X\	-mor-	2dd\	-te
!	!	!	!	!	!	!	!	!	!	!LO:LB:g=original	!
.	.	4d\	-lle	.	.	.	.	8f#\	-der-	.	.
.	.	.	.	.	.	8A/	-lle	8f#\	-la	.	.
=58-	=58-	=58-	=58-	=58-	=58-	=58-	=58-	=58-	=58-	=58-	=58-
4G\	A	2d\	vol-	4B-\	A	2G/	vol-	4.g\	tor-	4dd\	a
4G\	ri-	.	.	4B-\	ri-	.	.	.	.	4dd\	ri-
.	.	.	.	.	.	.	.	8g\	-na	.	.
!LO:SIC:v:t=custos F	!	!	!	!LO:SIC:v:t=custos A	!	!	!	!	!	!	!
4F#X\	-mor-	2d\	-te	4A/	-mor-	2D/	-te	4.a\	mi-	4dd\	-mor-
!LO:LB:g=original	!	!	!	!LO:LB:g=original	!	!	!	!	!	!	!
8F#\	-der-	.	.	8A/	-der-	.	.	.	.	8dd\	-der-
8F#\	-la	.	.	8A/	-la	.	.	8a\	-lle	8dd\	-la
=59-	=59-	=59-	=59-	=59-	=59-	=59-	=59-	=59-	=59-	=59-	=59-
4.G\	tor-	4d\	A	4.B-\	tor-	4G/	a	4g\	vol-	4.b-\	tor-
.	.	4d\	ri-	.	.	4G/	ri-	4d\	-te	.	.
8G\	-na	.	.	8B-\	-na	.	.	.	.	8b-\	-na
4.D/	mi-	4d\	-mor-	8A/	mi-	4F#X/	-mor-	2r	.	4.dd\	mi-
.	.	.	.	8A/	-lle	.	.	.	.	.	.
.	.	8d\	-der-	8A/	mi-	8F#/	-de-	.	.	.	.
!	!	!LO:SIC:v:t=custos d	!	!	!	!	!	!	!	!	!
8D/	-lle	8d\	-la	8A/	-lle	8F#/	-la	.	.	8dd\	-lle
!	!	!LO:LB:g=original	!	!	!	!	!	!	!	!	!
=60-	=60-	=60-	=60-	=60-	=60-	=60-	=60-	=60-	=60-	=60-	=60-
4GG/	vol-	4d\	tor-	4B-\	vol-	4.G/	tor-	4.d\	tor-	4dd\	vol-
4G\	-te	4B-\	-na	4d\	-te	.	.	.	.	4g\	-te
.	.	.	.	.	.	8B-\	-na	8e\	-na	.	.
8D/	mi-	8d\	mi-	4r	.	8A/	mi-	8f#X\	mi-	8a\	mi-
8D/	-lle	8d\	-lle	.	.	8A/	-lle	8f#\	-lle	8a\	-lle
8D/	mi-	8d\	mi-	8D/	mi-	8A/	mi-	8f#\	mi-	8a\	mi-
!	!	!	!	!	!	!	!	!LO:SIC:v:t=custos g	!	!	!
8D/	-lle	8d\	-lle	8D/	-lle	8A/	-lle	8f#\	-lle	8a\	-lle
!	!	!	!	!	!	!	!	!LO:LB:g=original	!	!	!
=61-	=61-	=61-	=61-	=61-	=61-	=61-	=61-	=61-	=61-	=61-	=61-
2GG/	vol-	2d\	vol-	8D/	mi-	2G/	vol-	2g\	vol-	2b-\	vol-
.	.	.	.	8D/	-lle	.	.	.	.	.	.
.	.	.	.	4D/	vol-	.	.	.	.	.	.
2D/	-te	2d\	-te	2D/	-te	2A\	-te	2f#X\	-te	2a\	-ter
=62-	=62-	=62-	=62-	=62-	=62-	=62-	=62-	=62-	=62-	=62-	=62-
2r	.	2r	.	1r	.	2r	.	1r	.	2r	.
2C/	Tu	2G/	Tu	.	.	2c\	Tu	.	.	2e/	Tu
=63-	=63-	=63-	=63-	=63-	=63-	=63-	=63-	=63-	=63-	=63-	=63-
!	!	!	!	!	!	!LO:SIC:v:t=custos c	!	!	!	!LO:SIC:v:t=custos e	!
2C/	lin-	2G/	lin-	2r	.	2c\	lin-	2r	.	2e/	lin-
!	!	!	!	!	!	!LO:LB:g=original	!	!	!	!LO:LB:g=original	!
2C/	-gua	2G/	-gua	2c\	Tu	2c\	-gua	2g\	Tu	2e/	-gua
=64-	=64-	=64-	=64-	=64-	=64-	=64-	=64-	=64-	=64-	=64-	=64-
2r	.	2r	.	2c\	lin-	2r	.	2e\	lin-	2r	.
!LO:SIC:v:t=custos C	!	!	!	!	!	!	!	!	!	!	!
2C/	Tu	4r	.	2c\	-gua	2G/	Tu	2e\	-gua	2g/	Tu
!LO:LB:g=original	!	!	!	!	!	!	!	!	!	!	!
.	.	4c\	Tu	.	.	.	.	.	.	.	.
=65-	=65-	=65-	=65-	=65-	=65-	=65-	=65-	=65-	=65-	=65-	=65-
2C/	lin-	2c\	lin-	1r	.	2G/	lin-	1r	.	2e/	lin-
2C/	-gua	2c\	-gua	.	.	2G/	-gua	.	.	2e/	-gua
=66-	=66-	=66-	=66-	=66-	=66-	=66-	=66-	=66-	=66-	=66-	=66-
1AA	ſo-	1.c#X	ſo-	1r	.	1A	ſo-	1r	.	1.e	ſo-
=67-	=67-	=67-	=67-	=67-	=67-	=67-	=67-	=67-	=67-	=67-	=67-
1AA	-frie	.	.	1r	.	1A	-frie	1r	.	.	.
.	.	2d\	-frie	.	.	.	.	.	.	2d/	-frie
=68-	=68-	=68-	=68-	=68-	=68-	=68-	=68-	=68-	=68-	=68-	=68-
1AA	ta-	1eny	ta-	1r	.	1A	ta-	1r	.	1c#X	ta-
=69-	=69-	=69-	=69-	=69-	=69-	=69-	=69-	=69-	=69-	=69-	=69-
!	!	!	!	!LO:SIC:v:t=custos d	!	!	!	!	!	!	!
1AA	-ci	1e	-ci	1r	.	1A	-ci	2r	.	2cny/	-ci
!	!	!	!	!LO:LB:g=original	!	!	!	!	!	!	!
.	.	.	.	.	.	.	.	4r	.	2c/	Per
.	.	.	.	.	.	.	.	4e\	Per	.	.
=70-	=70-	=70-	=70-	=70-	=70-	=70-	=70-	=70-	=70-	=70-	=70-
2D/	Per	2r	.	4r	.	1r	.	2f#X\	che	2d/	che
.	.	.	.	4d\	Per	.	.	.	.	.	.
!	!	!LO:SIC:v:t=custos d	!	!	!	!	!	!	!	!	!
4.G\	che	2d\	Per	4.B-\	che	.	.	2r	.	2r	.
!	!	!LO:LB:g=original	!	!	!	!	!	!	!	!	!
8Fny\	ſe	.	.	8A\	ſe	.	.	.	.	.	.
=71-	=71-	=71-	=71-	=71-	=71-	=71-	=71-	=71-	=71-	=71-	=71-
*	*	*	*	*	*	*	*	*	*ij	*	*
4G\	n' hua-	1d	che	4B-\	n' hau-	2G/	Per	2g\	Per	2dd\	Per
4A\	-rai	.	.	4c\	-rai	.	.	.	.	.	.
2B-\	mor-	.	.	2d\	mor-	4.G/	che	2g\	che	4.b-\	che
.	.	.	.	.	.	8Fny/	ſe-	.	.	8a\	ſe
=72-	=72-	=72-	=72-	=72-	=72-	=72-	=72-	=72-	=72-	=72-	=72-
4B-\	-ſi	2r	.	4d\	-xi	4G/	-n' hau-	2r	.	4b-\	n' hau-
*	*	*	*	*	*ij	*	*	*	*	*	*
4A\	Per	.	.	4c\	Per	4A/	-rai	.	.	4cc\	-rai
*	*	*	*ij	*	*	*	*	*	*	*	*
4.G\	che	2d\	Per	4.B-\	che	2B-\	mor-	2g\	Per	2dd\	mor-
8F\	ſe	.	.	8A\	ſe	.	.	.	.	.	.
=73-	=73-	=73-	=73-	=73-	=73-	=73-	=73-	=73-	=73-	=73-	=73-
4G\	n' hau-	2d\	che	4B-\	n' hau-	4B-\	-ſi	2g\	che	4dd\	-xi
!LO:SIC:v:t=custos B	!	!	!	!	!	!	!	!	!	!LO:SIC:v:t=custos b	!
*	*	*	*Xij	*	*	*	*ij	*	*Xij	*	*ij
4A\	-rau	.	.	4c\	-rai	4A/	Per	.	.	4cc\	Per
!LO:LB:g=original	!	!	!	!	!	!	!	!	!	!LO:LB:g=original	!
2B-\	mor-	2r	.	4d\	mor-	4.G/	che	2r	.	4.b-\	che
.	.	.	.	4d\	-ſi	.	.	.	.	.	.
*	*	*	*	*	*Xij	*	*	*	*	*	*
.	.	.	.	.	.	8F/	ſe-	.	.	8a\	ſe
=74-	=74-	=74-	=74-	=74-	=74-	=74-	=74-	=74-	=74-	=74-	=74-
2B-\	-ſi	2d\	Per	1r	.	4G/	-n' hau-	2g\	Per	4b-\	n' hau-
.	.	.	.	.	.	4A/	-rai	.	.	4cc\	-rai
4r	.	4.d\	che	.	.	2B-\	mor-	4.fny\	che	2dd\	mor-
4BB-/	I	.	.	.	.	.	.	.	.	.	.
.	.	8e\	ſe	.	.	.	.	8e\	ſe	.	.
=75-	=75-	=75-	=75-	=75-	=75-	=75-	=75-	=75-	=75-	=75-	=75-
1.BB-	n' hau-	4f\	n' hau-	2F/	I	2B-\	-fi	4d\	n' hau-	2dd\	-ſi
*	*	*	*	*	*	*	*Xij	*	*	*	*Xij
.	.	4e\	-rai	.	.	.	.	4e\	-rai	.	.
.	.	2d\	mor-	1F/	n' hau-	4r	.	2f\	mor-	4r	.
!	!	!	!	!	!	!LO:SIC:v:t=custos B	!	!	!	!	!
.	.	.	.	.	.	4B-\	i-	.	.	4dd\	i
!	!	!	!	!	!	!LO:LB:g=original	!	!	!	!	!
=76-	=76-	=76-	=76-	=76-	=76-	=76-	=76-	=76-	=76-	=76-	=76-
!	!	!	!	!	!	!	!	!LO:SIC:v:t=custos f	!	!	!
.	.	2d\	-xi	.	.	2B-\	-n' hau-	2f\	-fi' i-	2dd\	n' hau-
!	!	!	!	!	!	!	!	!LO:LB:g=original	!	!	!
2FF/	-ro-	4r	.	2F/	-ro	2A/	-ro-	4f\	-n' hau-	2cc\	-ro
.	.	4A/	I	.	.	.	.	4a\	-ro-	.	.
=77-	=77-	=77-	=77-	=77-	=77-	=77-	=77-	=77-	=77-	=77-	=77-
1GG	-ba-	4B-\	n' hau-	1D	ba-	1d	-ba-	1g	-ba-	1b-	ba-
.	.	4A/	-ro-	.	.	.	.	.	.	.	.
.	.	2G/	-ba-	.	.	.	.	.	.	.	.
=78-	=78-	=78-	=78-	=78-	=78-	=78-	=78-	=78-	=78-	=78-	=78-
4D/	-ci	2A/	-ci	4D/	-ci	1d	-ci	2f#X\	-ci	2a\	-ci
!	!	!	!	!LO:SIC:v:t=custos B	!	!	!	!	!	!	!
4D/	Per	.	.	4d\	Per	.	.	.	.	.	.
!	!	!	!	!LO:LB:g=original	!	!	!	!	!	!	!
4.G\	che	4r	.	4.B-\	che	.	.	2r	.	2r	.
.	.	4d\	Per	.	.	.	.	.	.	.	.
8F\	ſe	.	.	8A\	ſe	.	.	.	.	.	.
=79-	=79-	=79-	=79-	=79-	=79-	=79-	=79-	=79-	=79-	=79-	=79-
4G\	n' hau-	1d	che	4B-\	n' hau-	2G/	Per	2g\	Per	2dd\	Per
4A\	-rai	.	.	4c\	-rai	.	.	.	.	.	.
2B-\	mor-	.	.	2d\	mor-	4.G/	che	2g\	che	4.b-\	che
.	.	.	.	.	.	8F/	ſe-	.	.	8a\	ſe
=80-	=80-	=80-	=80-	=80-	=80-	=80-	=80-	=80-	=80-	=80-	=80-
4B-\	-ſi	2r	.	4d\	-ſi	4G/	-n' hau-	2r	.	4b-\	n' hau-
4A\	Per	.	.	4c\	Per	4A/	-rai	.	.	4cc\	-rai
!	!	!LO:SIC:v:t=custos d	!	!	!	!	!	!	!	!	!
*	*	*	*ij	*	*	*	*	*	*ij	*	*
4.G\	che	2d\	Per	4.B-\	che	2B-\	mor-	2g\	Per	2dd\	mor-
!	!	!LO:LB:g=original	!	!	!	!	!	!	!	!	!
8F\	xe	.	.	8A\	ſe	.	.	.	.	.	.
=81-	=81-	=81-	=81-	=81-	=81-	=81-	=81-	=81-	=81-	=81-	=81-
4G\	n' hau-	2d\	che	4B-\	n' hau-	4B-\	-xi	2g\	che	4dd\	-ſi
!LO:SIC:v:t=custos B	!	!	!	!	!	!	!	!	!	!LO:SIC:v:t=custos b	!
*	*	*	*Xij	*	*	*	*ij	*	*Xij	*	*ij
4A\	-rai	.	.	4c\	-rai	4A/	Per	.	.	4cc\	Per
!LO:LB:g=original	!	!	!	!	!	!	!	!	!	!LO:LB:g=original	!
2B-\	mor-	2r	.	4d\	mor-	4.G/	che	2r	.	4.b-\	che
.	.	.	.	4d\	-ſi	.	.	.	.	.	.
.	.	.	.	.	.	8F/	ſe-	.	.	8a\	ſe
=82-	=82-	=82-	=82-	=82-	=82-	=82-	=82-	=82-	=82-	=82-	=82-
2B-\	-ſi	2d\	Per	1r	.	4G/	-n' hau-	2g\	Per	4b-\	n' hau-
.	.	.	.	.	.	4A/	-rai	.	.	4cc\	-rai
4r	.	4.d\	che	.	.	2B-\	mor-	4.fny\	che	2dd\	mor-
4BB-/	I	.	.	.	.	.	.	.	.	.	.
.	.	8e\	ſe	.	.	.	.	8e\	ſe	.	.
=83-	=83-	=83-	=83-	=83-	=83-	=83-	=83-	=83-	=83-	=83-	=83-
1.BB-	n' hau-	4f\	n' hau-	2F/	I	2B-\	-ſi	4d\	n' hau-	2dd\	-ſi
*	*	*	*	*	*	*	*Xij	*	*	*	*Xij
.	.	4e\	-rai	.	.	.	.	4e\	-rai	.	.
.	.	2d\	mor-	1F/	n' hau-	4r	.	2f\	mor-	4r	.
.	.	.	.	.	.	4B-\	i-	.	.	4dd\	i
=84-	=84-	=84-	=84-	=84-	=84-	=84-	=84-	=84-	=84-	=84-	=84-
.	.	2d\	-ſi	.	.	2B-\	-n' hau-	2f\	-ſi i-	2dd\	n' hau-
2FF/	-ro-	4r	.	2F/	-ro-	2A\	-ro-	4f\	-n' hau-	2cc\	-ro-
.	.	4A/	I	.	.	.	.	4a\	-ro-	.	.
=85-	=85-	=85-	=85-	=85-	=85-	=85-	=85-	=85-	=85-	=85-	=85-
1GG	-ba-	4B-\	n' hau-	1D	-ba-	1d	-ba-	1g	-ba-	1b-	-ba-
.	.	4A/	-ro-	.	.	.	.	.	.	.	.
.	.	2G/	-ba-	.	.	.	.	.	.	.	.
=86-	=86-	=86-	=86-	=86-	=86-	=86-	=86-	=86-	=86-	=86-	=86-
0.D	-ci.	0.A	-ci.	0.D	-ci.	0.d	-ci.	0.f#X	-ci.	0.a	-ci.
=87-	=87-	=87-	=87-	=87-	=87-	=87-	=87-	=87-	=87-	=87-	=87-
.	.	.	.	.	.	.	.	.	.	.	.
=88-	=88-	=88-	=88-	=88-	=88-	=88-	=88-	=88-	=88-	=88-	=88-
.	.	.	.	.	.	.	.	.	.	.	.
=-	=-	=-	=-	=-	=-	=-	=-	=-	=-	=-	=-
*-	*-	*-	*-	*-	*-	*-	*-	*-	*-	*-	*-
!!!system-decoration: [(s1,s2,s3,s4)]s5,s6
!!!ENC: Berenika Jozajtis
!!!END: 2022-06-13
!!!ENC: Julita Ruszuk
!!!END: 2022-07-23
